FINK
CUT[DORT SINKET DIE SONNE IM WESTEN]
REG[Europa, Mitteleuropa, Deutschland]
KEY[F0190  16  D 6/8]
MEL[-5_  1_-7_1_3_.21_  2__-7_1__
    3_  2_-7_-7_2_.1-6_  -5__.^__
    -5-7  2_.1-7_1_2_3_  4___3_
    2_  1_.-71_2_1_-7_  1___0_ //] >>
FCT[Tageszeiten - Lied, Abend]
